X:1
T:Title
%%score ( 1 2 ) { 3 | 4 }
L:1/8
Q:1/4=108
M:4/4
K:F
V:1 treble nm="Grand Piano, Soprano"
V:2 treble 
V:3 bass nm="Choir Pad, Ashburton (Kemble)"
V:4 bass 
V:1
 [CA]2 [CA]2 [CB]2 [CA]2 | [DG]2 [Gd]2 [Ed]2 [E^c]2 | [Fd]2 cB [FA]2 DE | [DF]2 [^CE]2 D4 | %4
w: By~Samuel~Sebastian~Wesley,~1864 * * *||||
 [CA]2 [CA]2 [CB]2 [CA]2 | [DG]2 [Gd]2 [Ed]2 [E^c]2 | [Fd]2 cB [FA]2 DE | [DF]2 [^CE]2 D4 | %8
w: ||||
 z2 .F2 z4 | [CF]2 [^CF]2 [DF]3 [DG] | [CF]2 [CE]2 [CF]4- | [CF]4 z4 |] %12
w: ||||
V:2
 x8 | x8 | z2 G2 z4 | x8 | x8 | x8 | z2 G2 z4 | x8 | [CF]2 =B,-[B,G] [CF]2 [CE]2 | x8 | x8 | x8 |] %12
V:3
 F,2 F,2 G,2 A,2 | B,2 D2 A,2 A,2 | A,2 C2 C2 B,2 | A,2 A,G, F,4 | F,2 F,2 G,2 A,2 | %5
 B,2 D2 A,2 A,2 | A,2 C2 C2 B,2 | A,2 A,G, F,4 | F,2 G,2 A,2 G,2 | F,2 F,2 F,3 B, | A,2 G,2 A,4- | %11
 A,4 z4 |] %12
V:4
 z4 E,2 F,2 | z2 B,2 z4 | D,2 E,2 F,2 G,2 | z2 A,,2 D,4 | z4 E,2 F,2 | z2 B,2 z4 | %6
 D,2 E,2 F,2 G,2 | z2 A,,2 D,4 | D,2 G,,2 C,2 C,2 | A,,2 A,,2 B,,3 B,, | C,2 C,2 F,,4- | F,,4 z4 |] %12

